X: 5097
T: Bridge Of Athlone, The
R: hornpipe
M: 4/4
K: Dmajor
d2 d2 A>df>d|e>^de>f g>fe>d|c>de>f e>dc>B|(3Ace a>b a>gf>e|
d>fA>d (3FAd f>d|g>be>g (3Ace g>e|(3dce (3dcB A2 B>c|d2 f2 d2:|
e>ac'>b (3a^gb a>=g|f>ad'>c' b2 b>a|(3^gfe (3fed (3cag (3fed|(3Ace a>b a>gf>e|
d>fA>d (3FAd f2|g>be>g (3Ace g2|(3dce (3dcB (3ABA (3GFE|D2 F2 D2:|

